X:1
T:Nun fahet an mit freien muht
T:Conrad Hagius
T:Source : Lobgesänge---Ursell---C.Sutorius---1606. Editor : André Vierendeels (24/05/17).
T:Notes : Original clefs : C1, C3, C4, F4 Original note values have been halved Editorial accidentals above the staff Text Middle German  (Incipit Domino tympanis) (Judith 16)
T:Nun fahet an mit freien muht
T:©
T:©
T:©
C:Conrad Hagius
Z:©
%%score [ 1 [ 2 3 ] 4 ]
L:1/8
Q:1/4=120
M:2/2
K:C
V:1 treble nm="Soprano" snm="S"
V:2 treble-8 nm="Tenor 1" snm="T 1"
V:3 treble-8 nm="Tenor 2" snm="T 2"
V:4 bass nm="Bass" snm="B"
V:1
"^1)" D4 A2 B2 | c2 c2 d2 c2 | c4 z4 | A4 G2 F2 | GF F4 E2 | F4 z4 | F4 E2 D2 | A2 A2 Bc d2- | %8
w: Nun fa- het|an mit frei- em|muht,|zu- schla- gen|auff die trom- men|gut,|dem Gott in|al- ler- höch- * *|
w: Singt ihm ein|neu- en lob- ge-|sang,|fro- lock- et|hoch mit lau- ten|klang;|rufft an sein|Na- men lo- * *|
 d2 ^c2 d4 | z4 A4 | A2 A2 GE A2- | A^G/^F/ G2 A4 | z4 A4 | c2 B2 c2 AA- |"^#" AG/F/ G2 A2 E2- | %15
w: * sten thron,|lasst|auch die Cym- baln klin-|* * * * gen,|dem|Her- ren lob zu sin-|* * * * gen, mit|
w: * be- sam,|Gott|thut die Krieg zu- stö-|* * * * ren,|Macht|dasz sie bald auff- hö-|* * * * ren, der|
 E2 F2 F2 E2- | ED D4 ^C2 | D8 |] %18
w: _ lieb- lich süs-|* * * sen|thon.|
w: _ Herr ist zwar|_ _ _ sein|Nam.|
V:2
"^2)""^1)" A4 A2 G2 | G2 A2 _B2 G2 | A4 z4 | c4 e2 d2 | d2 c2 c2 c2 | c4 z4 | A4 c2 d2 | %7
w: Nun fa- het|an mit frei- em|muht,|zu schla- gen|auff die trom- men|gut,|dem Gott in|
w: Der sei- ne|zeit mit klu- gen|raht,|gar herr- lich|auff- ge- schla- gen|hat|im mit- tel|
 c2 A2 d2 B2 | A8 | z4 f4 | f2 d2 e2 e2 | e4 ^c4 | z4 ^f4 | g2 g2 e2 e2 | e4 ^c4 | z2 A2 c2 c2 | %16
w: al- ler höch- sten|thron,|lasst|auch die Cym- baln|klin- gen,|dem|Her- ren lob zu|sin- gen,|mit lieb- lich|
w: sei- nes vol- kes|gut,|auff|dasz er uns el-|len- den,|ausz|al- ler fein- de|hen- den,|er- rett ausz|
 A4 A4 | ^F8 |] %18
w: süs- sen|thon.|
w: tre- wen|mut.|
V:3
"^3)""^1)" D4 D2 D2 | E2 F2 F2 E2 | F4 z4 | A4 c2 A2 | _B2 A2 G2 G2 | F4 z4 | F4 G2 G2 | A2 F2 G4 | %8
w: Nun fa- het|an mit frei- en|muht,|zu schla- gen|auff die trom- men|gut,|dem Gott in|al- ler höch-|
w: As- sur kam|hert mit gros- ser|macht,|ausz ber- gen|hoch von mit- ter-|nacht,|er zog gar|un- ver- sagt|
 E4 D4 | z4 d4 | d2 A2 B2 c2 | B4 A4 | z4 d4 | e2 d2 A2 c2 | B4 A4 | c4 A2 G2 | F4 E4 | D8 |] %18
w: sten thron,|lasst|auch die Cym- baln|klin- gen,|dem|Her- ren lob zu|sin- gen,|mit lieb- lich|süs- sen|thon.|
w: her- an,|mit|ei- nem gros- sen|Hauff- en,|er-|ruft mit wehr und|waf- fen,|da war manch|tau- send|mann.|
V:4
"^4)""^1)""^5)" D,4 D,2 G,,2 | C,2 F,2 _B,,2 C,2 | F,,4 z4 | F,4 C,2 D,2 | _B,,2 F,,2 C,2 C,2 | %5
w: Nun fa- het|an mit frei- en|muht,|zu schla- gen|auff die trom- men|
w: Ein volck für|men- ge gross- er|schar,|die bäch- en|hat ver- stop- fett|
 F,,4 z4 |"^-natural" D,4 C,2 B,,2 | A,,2 D,2 G,,4 | A,,4 D,4 | z4 D,4 | D,2 F,2 E,2 A,,2 | %11
w: gut,|dem Gott in|al- ler höch-|sten thron,|lasst|auch die Cym- baln|
w: gar,|und sei- ne|rosz un- zal-|bar viel,|the-|ten sie zu gross-|
 E,4 A,,4 | z4 D,4 | C,2 G,2 A,2 A,2 | E,4 A,,4 | z2 F,2 F,2 C,2 | D,4 A,,4 | D,8 |] %18
w: klin- gen,|dem|Her- ren lob zu|sin- gen,|mit lieb- lich|süs- sen|thon.|
w: em schreck'|die|thä- le gar be-|deck- en,|da sein- zug|durch- in|fiel|

